X:78
T:Brendan Tonra's
R:jig
Z:Transcribed by Dave Marshall
M:6/8
K:D
|: ~F3 AFE|EDB, A,B,D|~F3 GFG|ABF AFE|
~F3 AFE|EDB, A,B,D|~F3 GFG | BAF D3 :|
|: f2d dcd | edc Bcd | f2d dcd|ABF A3|
f2d dcd|edc Bcd | faf gec | dAF D3 :|
